azure-patterns/grid11.svg

<svg xmlns="http://www.w3.org/2000/svg" viewBox="0 0 49 50"><path d="M5.158 11.092a5.107 5.107 0 100-10.214 5.107 5.107 0 000 10.214zm12.767-.001a5.107 5.107 0 100-10.213 5.107 5.107 0 000 10.213zm12.767 0a5.107 5.107 0 100-10.213 5.107 5.107 0 000 10.213zm12.767 0a5.107 5.107 0 100-10.213 5.107 5.107 0 000 10.213zM5.158 23.857a5.107 5.107 0 100-10.214 5.107 5.107 0 000 10.214zm0 12.769a5.107 5.107 0 100-10.214 5.107 5.107 0 000 10.214zm0 12.764a5.107 5.107 0 100-10.213 5.107 5.107 0 000 10.214zm12.767 0a5.107 5.107 0 100-10.213 5.107 5.107 0 000 10.214zm12.767 0a5.107 5.107 0 100-10.213 5.107 5.107 0 000 10.214zm12.767 0a5.107 5.107 0 100-10.213 5.107 5.107 0 000 10.214zm0-12.764a5.107 5.107 0 100-10.214 5.107 5.107 0 000 10.214zm0-12.769a5.107 5.107 0 100-10.214 5.107 5.107 0 000 10.214z" fill="#0078D4"/><path d="M24.308 36.623c6.346 0 11.49-5.144 11.49-11.49s-5.144-11.49-11.49-11.49c-6.345 0-11.49 5.144-11.49 11.49s5.145 11.49 11.49 11.49z" fill="#50E6FF"/></svg>

<svg xmlns="http://www.w3.org/2000/svg" viewBox="0 0 49 50"><path d="M5.158 11.092a5.107 5.107 0 100-10.214 5.107 5.107 0 000 10.214zM17.925 11.091a5.107 5.107 0 100-10.213 5.107 5.107 0 000 10.213zM30.692 11.091a5.107 5.107 0 100-10.213 5.107 5.107 0 000 10.213zM43.459 11.091a5.107 5.107 0 100-10.213 5.107 5.107 0 000 10.213zM5.158 23.857a5.107 5.107 0 100-10.214 5.107 5.107 0 000 10.214zM5.158 36.626a5.107 5.107 0 100-10.214 5.107 5.107 0 000 10.214zM5.158 49.39a5.107 5.107 0 100-10.213 5.107 5.107 0 000 10.214zM17.925 49.39a5.107 5.107 0 100-10.213 5.107 5.107 0 000 10.214zM30.692 49.39a5.107 5.107 0 100-10.213 5.107 5.107 0 000 10.214zM43.459 49.39a5.107 5.107 0 100-10.213 5.107 5.107 0 000 10.214zM43.459 36.626a5.107 5.107 0 100-10.214 5.107 5.107 0 000 10.214zM43.459 23.857a5.107 5.107 0 100-10.214 5.107 5.107 0 000 10.214z" fill="#0078D4"/><path d="M24.308 36.623c6.346 0 11.49-5.144 11.49-11.49s-5.144-11.49-11.49-11.49c-6.345 0-11.49 5.144-11.49 11.49s5.145 11.49 11.49 11.49z" fill="#50E6FF"/></svg>
